; generated by PrusaSlicer 2.6.1+MacOS-arm64 on 2023-11-12 at 12:15:18 UTC


;
;

;
;

;
;
; 

; external perimeters extrusion width = 0.45mm
; perimeters extrusion width = 0.45mm
; infill extrusion width = 0.45mm
; solid infill extrusion width = 0.45mm
; top infill extrusion width = 0.40mm
; first layer extrusion width = 0.50mm

M73 P0 R117
M201 X2500 Y2500 Z200 E2500 ; sets maximum accelerations, mm/sec^2
M203 X200 Y200 Z40 E100 ; sets maximum feedrates, mm / sec
M204 P2000 R1200 T2000 ; sets acceleration (P, T) and retract acceleration (R), mm/sec^2
M205 X8.00 Y8.00 Z2.00 E10.00 ; sets the jerk limits, mm/sec
M205 S0 T0 ; sets the minimum extruding and travel feed rate, mm/sec
;TYPE:Custom
M17 ; enable steppers
M862.3 P "MK4" ; printer model check
M862.1 P0.4 ; nozzle diameter check
M555 X50 Y75.999 W150 H57.501

G90 ; use absolute coordinates
M83 ; extruder relative mode

M140 S85 ; set bed temp

M104 S170 ; set extruder temp for bed leveling
M109 R170 ; wait for temp


M84 E ; turn off E motor

G28 ; home all without mesh bed level

G1 X42 Y-4 Z5 F4800

M302 S160 ; lower cold extrusion limit to 160C


G1 E-2 F2400 ; retraction


M84 E ; turn off E motor

G29 P9 X10 Y-4 W32 H4



G0 Z40 F10000

M190 S85 ; wait for bed temp

M107

;
; MBL
;
M84 E ; turn off E motor
G29 P1 ; invalidate mbl & probe print area
G29 P1 X0 Y0 W50 H20 C ; probe near purge place
G29 P3.2 ; interpolate mbl probes
G29 P3.13 ; extrapolate mbl outside probe area
G29 A ; activate mbl

; prepare for purge
M104 S230
G0 X0 Y-4 Z15 F4800 ; move away and ready for the purge
M109 S230

G92 E0
M569 S0 E ; set spreadcycle mode for extruder

;
; Extrude purge line
;
G92 E0 ; reset extruder position
G1 E2 F2400 ; deretraction after the initial one before nozzle cleaning
G0 E7 X15 Z0.2 F500 ; purge
G0 X25 E4 F500 ; purge
G0 X35 E4 F650 ; purge
G0 X45 E4 F800 ; purge
G0 X48 Z0.05 F8000 ; wipe, move close to the bed
G0 X51 Z0.2 F8000 ; wipe, move quickly away from the bed

G92 E0
M221 S100 ; set flow to 100%
G21 ; set units to millimeters
G90 ; use absolute coordinates
M83 ; use relative distances for extrusion
M900 K0.07 ; Filament gcode



M142 S36 ; set heatbreak target temp
M107
;LAYER_CHANGE
;Z:0.2
;HEIGHT:0.2
;BEFORE_LAYER_CHANGE
G92 E0.0
;0.2


G1 E-1 F2100
G1 Z.15 F720
G1 Z.2
;AFTER_LAYER_CHANGE
;0.2
; printing object Abdeckung_Abrichte.stl id:0 copy 0
G1 Z.35
G1 X187.219 Y121.599 F12000
M73 P0 R116
G1 Z.2 F720
G1 E1 F1500
M204 P600
;TYPE:Perimeter
;WIDTH:0.499999
G1 F1200
G1 X187.149 Y121.605 E.00267
G1 X186.867 Y121.73 E.01172
G1 X186.668 Y121.967 E.01176
G1 X186.593 Y122.279 E.0122
G1 X186.593 Y132.593 E.392
G1 X63.407 Y132.593 E4.68184
G1 X63.407 Y122.279 E.392
G1 X63.387 Y122.112 E.00639
G1 X63.251 Y121.843 E.01146
G1 X63.008 Y121.655 E.01168
G1 X62.721 Y121.593 E.01116
G1 X60.995 Y121.593 E.0656
G1 X60.476 Y121.673 E.01996
G1 X60.256 Y121.751 E.00887
G1 X59.742 Y122.069 E.02297
G1 X59.391 Y122.483 E.02063
G1 X59.155 Y123.042 E.02306
G1 X59.093 Y123.495 E.01738
G1 X59.093 Y132.593 E.34578
G1 X58.708 Y132.593 E.01463
G1 X57.907 Y129.388 E.12556
G1 X57.907 Y123.495 E.22397
G1 X57.827 Y122.976 E.01996
G1 X57.746 Y122.751 E.00909
G1 X57.411 Y122.22 E.02386
G1 X56.976 Y121.863 E.02139
G1 X56.458 Y121.655 E.02122
G1 X56.005 Y121.593 E.01738
G1 X53.983 Y121.593 E.07685
G1 X53.445 Y121.682 E.02073
G1 X53.222 Y121.766 E.00906
G1 X52.857 Y121.982 E.01612
G1 X52.681 Y122.131 E.00876
G1 X52.306 Y122.638 E.02397
G1 X52.157 Y123.035 E.01612
G1 X52.093 Y123.495 E.01765
G1 X52.093 Y129.388 E.22397
G1 X51.292 Y132.593 E.12556
G1 X50.907 Y132.593 E.01463
G1 X50.907 Y88.407 E1.67935
G1 X54.051 Y88.407 E.11949
G1 X54.309 Y88.357 E.00999
G1 X54.581 Y88.156 E.01285
;WIDTH:0.541457
G1 X54.755 Y87.783 E.01706
;WIDTH:0.545009
G1 X54.745 Y87.233 E.02297
G1 X54.75 Y81.176 E.25287
;WIDTH:0.541698
G1 X54.755 Y80.927 E.01033
G1 X55.245 Y80.927 E.02032
G1 X55.249 Y81.176 E.01033
;WIDTH:0.545009
G1 X55.25 Y87.721 E.27325
;WIDTH:0.537822
G1 X55.425 Y88.156 E.0193
;WIDTH:0.499999
G1 X55.697 Y88.357 E.01285
G1 X55.955 Y88.407 E.00999
G1 X194.045 Y88.407 E5.24829
G1 X194.303 Y88.357 E.00999
G1 X194.575 Y88.156 E.01285
;WIDTH:0.541458
G1 X194.749 Y87.783 E.01706
;WIDTH:0.545007
G1 X194.751 Y81.176 E.27583
;WIDTH:0.541698
G1 X194.755 Y80.927 E.01033
G1 X195.245 Y80.927 E.02032
G1 X195.25 Y81.176 E.01033
;WIDTH:0.545007
G1 X195.255 Y87.23 E.25275
G1 X195.244 Y87.721 E.0205
;WIDTH:0.537821
G1 X195.419 Y88.156 E.0193
;WIDTH:0.499999
G1 X195.691 Y88.357 E.01285
G1 X195.949 Y88.407 E.00999
G1 X199.093 Y88.407 E.11949
G1 X199.093 Y91.551 E.11949
G1 X199.093 Y132.593 E1.55985
G1 X198.708 Y132.593 E.01463
G1 X197.907 Y129.388 E.12556
G1 X197.907 Y123.495 E.22397
G1 X197.818 Y122.947 E.0211
G1 X197.734 Y122.722 E.00913
G1 X197.518 Y122.357 E.01612
G1 X197.364 Y122.176 E.00903
G1 X197.036 Y121.907 E.01612
G1 X196.829 Y121.79 E.00904
G1 X196.429 Y121.649 E.01612
G1 X196.005 Y121.593 E.01625
G1 X193.995 Y121.593 E.07639
G1 X193.476 Y121.673 E.01996
G1 X193.256 Y121.751 E.00887
G1 X192.727 Y122.084 E.02376
G1 X192.389 Y122.482 E.01985
G1 X192.157 Y123.035 E.02279
G1 X192.093 Y123.495 E.01765
G1 X192.093 Y129.388 E.22397
G1 X191.292 Y132.593 E.12556
G1 X190.907 Y132.593 E.01463
G1 X190.907 Y123.495 E.34578
G1 X190.821 Y122.943 E.02123
G1 X190.54 Y122.387 E.02368
G1 X190.389 Y122.203 E.00905
G1 X189.993 Y121.872 E.01962
G1 X189.465 Y121.657 E.02167
G1 X189.017 Y121.593 E.0172
G1 X187.279 Y121.593 E.06605
M204 P1000
G1 X187.279 Y122.05 F12000
M204 P600
;TYPE:External perimeter
G1 F1200
G1 X187.12 Y122.114 E.00651
G1 X187.05 Y122.279 E.00681
G1 X187.05 Y133.05 E.40937
G1 X62.95 Y133.05 E4.71658
G1 X62.95 Y122.279 E.40937
G1 X62.886 Y122.12 E.00651
G1 X62.721 Y122.05 E.00681
G1 X60.995 Y122.05 E.0656
G1 X60.529 Y122.129 E.01796
G1 X60.091 Y122.371 E.01902
G1 X59.761 Y122.753 E.01919
G1 X59.584 Y123.198 E.0182
G1 X59.55 Y123.495 E.01136
G1 X59.55 Y133.05 E.36315
G1 X58.351 Y133.05 E.04557
G1 X57.45 Y129.445 E.14123
G1 X57.45 Y123.495 E.22614
G1 X57.375 Y123.045 E.01734
G1 X57.126 Y122.592 E.01965
G1 X56.746 Y122.26 E.01918
G1 X56.302 Y122.084 E.01815
G1 X56.005 Y122.05 E.01136
G1 X53.983 Y122.051 E.07685
G1 X53.529 Y122.132 E.01753
G1 X53.09 Y122.375 E.01907
G1 X52.773 Y122.732 E.01815
G1 X52.585 Y123.196 E.01903
G1 X52.55 Y123.495 E.01144
G1 X52.55 Y129.445 E.22614
G1 X51.649 Y133.05 E.14123
G1 X50.45 Y133.05 E.04557
G1 X50.45 Y87.95 E1.71408
G1 X54.051 Y87.95 E.13686
G1 X54.17 Y87.917 E.00469
G1 X54.279 Y87.741 E.00787
G1 X54.265 Y87.24 E.01905
G1 X54.273 Y81.175 E.23051
G1 X54.323 Y80.543 E.0241
G1 X54.373 Y80.449 E.00405
G1 X55.627 Y80.449 E.04766
G1 X55.66 Y80.497 E.00221
G1 X55.727 Y80.929 E.01662
G1 X55.727 Y87.741 E.2589
G1 X55.836 Y87.917 E.00787
G1 X55.955 Y87.95 E.00469
G1 X194.045 Y87.95 E5.24829
G1 X194.09 Y87.945 E.00172
G1 X194.222 Y87.866 E.00585
G1 X194.274 Y87.721 E.00585
G1 X194.273 Y81.176 E.24875
G1 X194.323 Y80.543 E.02413
G1 X194.373 Y80.449 E.00405
G1 X195.627 Y80.449 E.04766
G1 X195.66 Y80.497 E.00221
G1 X195.727 Y80.93 E.01665
G1 X195.735 Y87.24 E.23982
G1 X195.721 Y87.741 E.01905
G1 X195.83 Y87.917 E.00787
G1 X195.949 Y87.95 E.00469
G1 X199.55 Y87.95 E.13686
G1 X199.55 Y133.05 E1.71408
G1 X198.351 Y133.05 E.04557
G1 X197.45 Y129.445 E.14123
G1 X197.45 Y123.495 E.22614
G1 X197.368 Y123.03 E.01795
G1 X197.125 Y122.59 E.0191
G1 X196.746 Y122.26 E.0191
G1 X196.277 Y122.08 E.01909
G1 X196.005 Y122.05 E.0104
G1 X193.995 Y122.05 E.07639
G1 X193.554 Y122.123 E.01699
G1 X193.112 Y122.358 E.01903
G1 X192.774 Y122.731 E.01913
G1 X192.585 Y123.196 E.01908
G1 X192.55 Y123.495 E.01144
G1 X192.55 Y129.445 E.22614
G1 X191.649 Y133.05 E.14123
G1 X190.45 Y133.05 E.04557
G1 X190.45 Y123.495 E.36315
G1 X190.377 Y123.054 E.01699
G1 X190.142 Y122.612 E.01903
G1 X189.77 Y122.275 E.01908
G1 X189.304 Y122.085 E.01913
G1 X189.017 Y122.051 E.01098
G1 X187.339 Y122.05 E.06377
M204 P1000
G1 X187.159 Y121.928 F12000
;WIPE_START
G1 F9600
G1 X187.12 Y122.114 E-.04741
G1 X187.05 Y122.279 E-.03725
G1 X187.05 Y126.684 E-.91534
;WIPE_END
G1 Z.35 F720
G1 X198.887 Y89.539 F12000
G1 Z.2 F720
G1 E1 F1500
M204 P600
;TYPE:Solid infill
;WIDTH:0.501224
G1 F1200
G1 X198.166 Y88.818 E.03886
G1 X197.518 Y88.818 E.02469
G1 X198.682 Y89.982 E.06273
G1 X198.682 Y90.63 E.02469
G1 X196.87 Y88.818 E.09765
G1 X196.222 Y88.818 E.02469
G1 X198.682 Y91.278 E.13258
G1 X198.682 Y91.926 E.02469
G1 X194.989 Y88.234 E.199
G1 X194.899 Y88.415 E.0077
G1 X194.698 Y88.59 E.01016
G1 X198.682 Y92.574 E.21471
G1 X198.682 Y93.222 E.02469
G1 X194.257 Y88.798 E.23845
G1 X194.054 Y88.818 E.00777
G1 X193.629 Y88.818 E.0162
G1 X198.682 Y93.871 E.27232
G1 X198.682 Y94.519 E.02469
G1 X192.981 Y88.818 E.30724
G1 X192.333 Y88.818 E.02469
G1 X198.682 Y95.167 E.34217
G1 X198.682 Y95.815 E.02469
G1 X191.685 Y88.818 E.37709
G1 X191.037 Y88.818 E.02469
G1 X198.682 Y96.463 E.41201
G1 X198.682 Y97.111 E.02469
G1 X190.389 Y88.818 E.44693
G1 X189.741 Y88.818 E.02469
G1 X198.682 Y97.759 E.48186
G1 X198.682 Y98.408 E.02473
G1 X189.092 Y88.818 E.51683
G1 X188.444 Y88.818 E.02469
G1 X198.682 Y99.056 E.55176
G1 X198.682 Y99.704 E.02469
G1 X187.796 Y88.818 E.58668
G1 X187.148 Y88.818 E.02469
G1 X198.682 Y100.352 E.6216
G1 X198.682 Y101 E.02469
G1 X186.5 Y88.818 E.65652
G1 X185.852 Y88.818 E.02469
M73 P0 R115
G1 X198.682 Y101.648 E.69145
G1 X198.682 Y102.296 E.02469
G1 X185.204 Y88.818 E.72637
G1 X184.555 Y88.818 E.02473
G1 X198.682 Y102.945 E.76135
G1 X198.682 Y103.593 E.02469
G1 X183.907 Y88.818 E.79627
G1 X183.259 Y88.818 E.02469
G1 X198.682 Y104.241 E.83119
G1 X198.682 Y104.889 E.02469
M73 P1 R115
G1 X182.611 Y88.818 E.86611
G1 X181.963 Y88.818 E.02469
G1 X198.682 Y105.537 E.90104
G1 X198.682 Y106.185 E.02469
G1 X181.315 Y88.818 E.93596
G1 X180.667 Y88.818 E.02469
G1 X198.682 Y106.833 E.97088
G1 X198.682 Y107.482 E.02473
G1 X180.018 Y88.818 E1.00586
G1 X179.37 Y88.818 E.02469
G1 X198.682 Y108.13 E1.04078
G1 X198.682 Y108.778 E.02469
G1 X178.722 Y88.818 E1.07571
G1 X178.074 Y88.818 E.02469
G1 X198.682 Y109.426 E1.11063
G1 X198.682 Y110.074 E.02469
G1 X177.426 Y88.818 E1.14555
G1 X176.778 Y88.818 E.02469
G1 X198.682 Y110.722 E1.18047
G1 X198.682 Y111.37 E.02469
G1 X176.13 Y88.818 E1.2154
G1 X175.481 Y88.818 E.02473
G1 X198.682 Y112.019 E1.25037
G1 X198.682 Y112.667 E.02469
G1 X174.833 Y88.818 E1.2853
G1 X174.185 Y88.818 E.02469
G1 X198.682 Y113.315 E1.32022
G1 X198.682 Y113.963 E.02469
G1 X173.537 Y88.818 E1.35514
G1 X172.889 Y88.818 E.02469
G1 X198.682 Y114.611 E1.39006
G1 X198.682 Y115.259 E.02469
G1 X172.241 Y88.818 E1.42499
G1 X171.593 Y88.818 E.02469
G1 X198.682 Y115.907 E1.45991
G1 X198.682 Y116.556 E.02473
G1 X170.944 Y88.818 E1.49489
G1 X170.296 Y88.818 E.02469
G1 X198.682 Y117.204 E1.52981
G1 X198.682 Y117.852 E.02469
G1 X169.648 Y88.818 E1.56473
G1 X169 Y88.818 E.02469
G1 X198.682 Y118.5 E1.59965
G1 X198.682 Y119.148 E.02469
G1 X168.352 Y88.818 E1.63458
G1 X167.704 Y88.818 E.02469
G1 X198.682 Y119.796 E1.6695
G1 X198.682 Y120.444 E.02469
G1 X167.056 Y88.818 E1.70442
G1 X166.408 Y88.818 E.02469
G1 X198.682 Y121.092 E1.73934
G1 X198.682 Y121.741 E.02473
G1 X165.759 Y88.818 E1.77432
G1 X165.111 Y88.818 E.02469
G1 X198.682 Y122.389 E1.80924
G1 X198.682 Y123.037 E.02469
G1 X164.463 Y88.818 E1.84417
G1 X163.815 Y88.818 E.02469
G1 X196.191 Y121.195 E1.74487
G1 X196.012 Y121.182 E.00684
G1 X195.53 Y121.182 E.01837
G1 X163.167 Y88.818 E1.74417
G1 X162.519 Y88.818 E.02469
G1 X194.882 Y121.182 E1.74417
G1 X194.234 Y121.182 E.02469
G1 X161.871 Y88.818 E1.74417
M73 P1 R114
G1 X161.222 Y88.818 E.02473
G1 X193.633 Y121.229 E1.74673
G1 X193.311 Y121.287 E.01247
G1 X193.12 Y121.364 E.00785
G1 X160.574 Y88.818 E1.754
G1 X159.926 Y88.818 E.02469
G1 X192.705 Y121.597 E1.76656
G1 X192.562 Y121.68 E.0063
G1 X192.35 Y121.891 E.0114
G1 X159.278 Y88.818 E1.78238
G1 X158.63 Y88.818 E.02469
G1 X192.054 Y122.243 E1.80135
G1 X191.926 Y122.481 E.0103
G1 X191.849 Y122.686 E.00835
M73 P2 R114
G1 X157.982 Y88.818 E1.82522
G1 X157.334 Y88.818 E.02469
G1 X191.894 Y123.379 E1.86257
M204 P1000
G1 X191.076 Y123.209 F12000
M204 P600
G1 F1200
G1 X191.685 Y123.818 E.03282
G1 X191.685 Y124.466 E.02469
G1 X191.318 Y124.1 E.01975
G1 X191.318 Y124.748 E.02469
G1 X191.684 Y125.114 E.01972
G1 X191.684 Y125.761 E.02466
G1 X191.318 Y125.396 E.0197
G1 X191.318 Y126.044 E.02469
G1 X191.684 Y126.409 E.0197
G1 X191.683 Y127.057 E.02469
G1 X191.318 Y126.692 E.01967
G1 X191.318 Y127.34 E.02469
G1 X191.683 Y127.705 E.01967
G1 X191.682 Y128.352 E.02466
G1 X191.318 Y127.988 E.01962
G1 X191.318 Y128.637 E.02473
G1 X191.682 Y129 E.01959
G1 X191.682 Y129.338 E.01288
G1 X191.62 Y129.586 E.00974
G1 X191.318 Y129.285 E.01625
G1 X191.318 Y129.933 E.02469
G1 X191.49 Y130.104 E.00924
G1 X191.36 Y130.623 E.02039
G1 X191.113 Y130.375 E.01334
M204 P1000
;WIPE_START
G1 F9600
G1 X191.36 Y130.623 E-.07274
G1 X191.49 Y130.104 E-.11119
G1 X191.318 Y129.933 E-.0504
G1 X191.318 Y129.285 E-.13466
G1 X191.62 Y129.586 E-.08861
G1 X191.682 Y129.338 E-.05312
G1 X191.682 Y129 E-.07024
G1 X191.318 Y128.637 E-.10683
G1 X191.318 Y127.988 E-.13487
G1 X191.682 Y128.352 E-.10698
G1 X191.683 Y128.013 E-.07036
;WIPE_END
G1 Z.35 F720
G1 X198.887 Y123.891 F12000
G1 Z.2 F720
G1 E1 F1500
M204 P600
G1 F1200
G1 X198.302 Y123.305 E.03155
G1 X198.318 Y123.486 E.00692
G1 X198.318 Y123.97 E.01844
G1 X198.682 Y124.333 E.01959
G1 X198.682 Y124.981 E.02469
G1 X198.318 Y124.618 E.01959
G1 X198.318 Y125.266 E.02469
G1 X198.682 Y125.629 E.01959
G1 X198.682 Y126.278 E.02473
G1 X198.318 Y125.915 E.01959
G1 X198.318 Y126.563 E.02469
G1 X198.682 Y126.926 E.01959
G1 X198.682 Y127.574 E.02469
G1 X198.318 Y127.211 E.01959
G1 X198.318 Y127.859 E.02469
G1 X198.682 Y128.222 E.01959
G1 X198.682 Y128.87 E.02469
G1 X198.318 Y128.507 E.01959
G1 X198.318 Y129.155 E.02469
G1 X198.682 Y129.518 E.01959
G1 X198.682 Y130.166 E.02469
G1 X198.191 Y129.676 E.02643
M204 P1000
;WIPE_START
G1 F9600
G1 X198.682 Y130.166 E-.14415
G1 X198.682 Y129.518 E-.13466
G1 X198.318 Y129.155 E-.10683
G1 X198.318 Y128.507 E-.13466
G1 X198.682 Y128.87 E-.10683
G1 X198.682 Y128.222 E-.13466
G1 X198.318 Y127.859 E-.10683
G1 X198.318 Y127.227 E-.13138
;WIPE_END
G1 Z.35 F720
G1 X189.276 Y121.409 F12000
G1 Z.2 F720
G1 E1 F1500
M204 P600
G1 F1200
G1 X156.685 Y88.818 E1.75643
G1 X156.037 Y88.818 E.02469
G1 X188.403 Y121.185 E1.74433
G1 X187.753 Y121.183 E.02477
G1 X155.389 Y88.818 E1.74422
G1 X154.741 Y88.818 E.02469
G1 X187.119 Y121.196 E1.74495
G1 X186.866 Y121.261 E.00995
G1 X186.655 Y121.38 E.00923
G1 X154.093 Y88.818 E1.75487
G1 X153.445 Y88.818 E.02469
G1 X186.341 Y121.715 E1.77289
G1 X186.281 Y121.819 E.00458
G1 X186.214 Y122.012 E.00779
G1 X186.184 Y122.206 E.00748
G1 X152.797 Y88.818 E1.79935
G1 X152.148 Y88.818 E.02473
G1 X186.184 Y122.854 E1.8343
G1 X186.183 Y123.502 E.02469
G1 X151.5 Y88.818 E1.8692
G1 X150.852 Y88.818 E.02469
G1 X186.183 Y124.15 E1.90412
G1 X186.183 Y124.798 E.02469
G1 X150.204 Y88.818 E1.93904
G1 X149.556 Y88.818 E.02469
G1 X186.183 Y125.446 E1.97397
G1 X186.183 Y126.094 E.02469
G1 X148.908 Y88.818 E2.00889
G1 X148.26 Y88.818 E.02469
G1 X186.183 Y126.742 E2.04381
G1 X186.183 Y127.39 E.02469
G1 X147.611 Y88.818 E2.07876
G1 X146.963 Y88.818 E.02469
G1 X186.182 Y128.038 E2.11366
G1 X186.182 Y128.686 E.02469
M73 P2 R113
G1 X146.315 Y88.818 E2.14858
G1 X145.667 Y88.818 E.02469
G1 X186.182 Y129.334 E2.1835
G1 X186.182 Y129.982 E.02469
G1 X145.019 Y88.818 E2.21843
G1 X144.371 Y88.818 E.02469
G1 X186.182 Y130.63 E2.25335
G1 X186.182 Y131.278 E.02469
G1 X143.723 Y88.818 E2.28827
G1 X143.074 Y88.818 E.02473
G1 X186.182 Y131.926 E2.32322
G1 X186.182 Y132.182 E.00976
G1 X185.789 Y132.182 E.01498
G1 X142.426 Y88.818 E2.33699
G1 X141.778 Y88.818 E.02469
G1 X185.141 Y132.182 E2.33699
G1 X184.493 Y132.182 E.02469
G1 X141.13 Y88.818 E2.33699
M73 P3 R113
G1 X140.482 Y88.818 E.02469
G1 X183.845 Y132.182 E2.33699
G1 X183.197 Y132.182 E.02469
G1 X139.834 Y88.818 E2.33699
G1 X139.186 Y88.818 E.02469
G1 X182.549 Y132.182 E2.33699
G1 X181.901 Y132.182 E.02469
G1 X138.537 Y88.818 E2.33702
G1 X137.889 Y88.818 E.02469
G1 X181.252 Y132.182 E2.33699
G1 X180.604 Y132.182 E.02469
