; generated by PrusaSlicer 2.6.1+MacOS-arm64 on 2023-11-13 at 06:42:47 UTC


;
;

;
;

;
;
; 

; external perimeters extrusion width = 0.45mm
; perimeters extrusion width = 0.45mm
; infill extrusion width = 0.45mm
; solid infill extrusion width = 0.45mm
; top infill extrusion width = 0.40mm
; first layer extrusion width = 0.50mm

M73 P0 R119
M201 X2500 Y2500 Z200 E2500 ; sets maximum accelerations, mm/sec^2
M203 X200 Y200 Z40 E100 ; sets maximum feedrates, mm / sec
M204 P2000 R1200 T2000 ; sets acceleration (P, T) and retract acceleration (R), mm/sec^2
M205 X8.00 Y8.00 Z2.00 E10.00 ; sets the jerk limits, mm/sec
M205 S0 T0 ; sets the minimum extruding and travel feed rate, mm/sec
;TYPE:Custom
M17 ; enable steppers
M862.3 P "MK4" ; printer model check
M862.1 P0.4 ; nozzle diameter check
M555 X54.4909 Y73.5001 W150 H57.501

G90 ; use absolute coordinates
M83 ; extruder relative mode

M140 S85 ; set bed temp

M104 S170 ; set extruder temp for bed leveling
M109 R170 ; wait for temp


M84 E ; turn off E motor

G28 ; home all without mesh bed level

G1 X42 Y-4 Z5 F4800

M302 S160 ; lower cold extrusion limit to 160C


G1 E-2 F2400 ; retraction


M84 E ; turn off E motor

G29 P9 X10 Y-4 W32 H4



G0 Z40 F10000

M190 S85 ; wait for bed temp

M107

;
; MBL
;
M84 E ; turn off E motor
G29 P1 ; invalidate mbl & probe print area
G29 P1 X0 Y0 W50 H20 C ; probe near purge place
G29 P3.2 ; interpolate mbl probes
G29 P3.13 ; extrapolate mbl outside probe area
G29 A ; activate mbl

; prepare for purge
M104 S230
G0 X0 Y-4 Z15 F4800 ; move away and ready for the purge
M109 S230

G92 E0
M569 S0 E ; set spreadcycle mode for extruder

;
; Extrude purge line
;
G92 E0 ; reset extruder position
G1 E2 F2400 ; deretraction after the initial one before nozzle cleaning
G0 E7 X15 Z0.2 F500 ; purge
G0 X25 E4 F500 ; purge
G0 X35 E4 F650 ; purge
G0 X45 E4 F800 ; purge
G0 X48 Z0.05 F8000 ; wipe, move close to the bed
G0 X51 Z0.2 F8000 ; wipe, move quickly away from the bed

G92 E0
M221 S100 ; set flow to 100%
G21 ; set units to millimeters
G90 ; use absolute coordinates
M83 ; use relative distances for extrusion
M900 K0.07 ; Filament gcode



M142 S36 ; set heatbreak target temp
M107
;LAYER_CHANGE
;Z:0.2
;HEIGHT:0.2
;BEFORE_LAYER_CHANGE
G92 E0.0
;0.2


G1 E-1 F2100
G1 Z.15 F720
G1 Z.2
;AFTER_LAYER_CHANGE
;0.2
; printing object Abdeckung_Abrichte.stl id:0 copy 0
G1 Z.35
M73 P0 R118
G1 X191.71 Y119.1 F12000
G1 Z.2 F720
G1 E1 F1500
M204 P600
;TYPE:Perimeter
;WIDTH:0.499999
G1 F1200
G1 X191.64 Y119.106 E.00267
G1 X191.358 Y119.231 E.01172
G1 X191.159 Y119.468 E.01176
G1 X191.084 Y119.78 E.0122
G1 X191.084 Y130.094 E.392
G1 X67.898 Y130.094 E4.68184
G1 X67.898 Y119.78 E.392
G1 X67.877 Y119.613 E.0064
G1 X67.742 Y119.344 E.01144
G1 X67.498 Y119.157 E.01168
G1 X67.212 Y119.094 E.01113
G1 X65.486 Y119.094 E.0656
G1 X64.967 Y119.174 E.01996
G1 X64.747 Y119.252 E.00887
G1 X64.233 Y119.57 E.02297
G1 X63.882 Y119.985 E.02066
G1 X63.646 Y120.543 E.02303
G1 X63.584 Y120.996 E.01738
G1 X63.584 Y130.094 E.34578
G1 X63.199 Y130.094 E.01463
G1 X62.398 Y126.889 E.12556
G1 X62.398 Y120.996 E.22397
G1 X62.318 Y120.477 E.01996
G1 X62.236 Y120.252 E.0091
G1 X61.902 Y119.721 E.02384
G1 X61.467 Y119.364 E.02139
G1 X60.949 Y119.156 E.02122
G1 X60.496 Y119.094 E.01738
G1 X58.474 Y119.095 E.07685
G1 X57.935 Y119.184 E.02076
G1 X57.713 Y119.267 E.00901
G1 X57.348 Y119.483 E.01612
G1 X57.172 Y119.632 E.00876
G1 X56.797 Y120.139 E.02397
G1 X56.648 Y120.537 E.01615
G1 X56.584 Y120.996 E.01761
G1 X56.584 Y126.889 E.22397
G1 X55.783 Y130.094 E.12556
G1 X55.398 Y130.094 E.01463
G1 X55.398 Y85.908 E1.67935
G1 X58.542 Y85.908 E.11949
G1 X58.8 Y85.858 E.00999
G1 X59.072 Y85.657 E.01285
;WIDTH:0.541457
G1 X59.246 Y85.284 E.01706
;WIDTH:0.545009
G1 X59.236 Y84.735 E.02292
G1 X59.241 Y78.677 E.25291
;WIDTH:0.541698
G1 X59.246 Y78.428 E.01033
G1 X59.736 Y78.428 E.02032
G1 X59.74 Y78.677 E.01033
;WIDTH:0.545009
G1 X59.741 Y85.222 E.27325
;WIDTH:0.537822
G1 X59.916 Y85.657 E.0193
;WIDTH:0.499999
G1 X60.188 Y85.858 E.01285
G1 X60.446 Y85.908 E.00999
G1 X198.536 Y85.908 E5.24829
G1 X198.794 Y85.858 E.00999
G1 X199.066 Y85.657 E.01285
;WIDTH:0.541458
G1 X199.239 Y85.284 E.01704
;WIDTH:0.545007
G1 X199.242 Y78.677 E.27583
;WIDTH:0.541698
G1 X199.246 Y78.428 E.01033
G1 X199.736 Y78.428 E.02032
G1 X199.74 Y78.677 E.01033
;WIDTH:0.545007
G1 X199.746 Y84.731 E.25275
G1 X199.735 Y85.222 E.0205
;WIDTH:0.537821
G1 X199.91 Y85.657 E.0193
;WIDTH:0.499999
G1 X200.182 Y85.858 E.01285
G1 X200.44 Y85.908 E.00999
G1 X203.584 Y85.908 E.11949
G1 X203.584 Y89.052 E.11949
G1 X203.584 Y130.094 E1.55985
G1 X203.199 Y130.094 E.01463
G1 X202.398 Y126.889 E.12556
G1 X202.398 Y120.996 E.22397
G1 X202.309 Y120.448 E.0211
G1 X202.225 Y120.224 E.00909
G1 X202.009 Y119.858 E.01615
G1 X201.854 Y119.677 E.00906
G1 X201.527 Y119.408 E.01609
G1 X201.319 Y119.291 E.00907
G1 X200.92 Y119.15 E.01608
G1 X200.496 Y119.094 E.01625
G1 X198.486 Y119.094 E.07639
G1 X197.967 Y119.174 E.01996
G1 X197.747 Y119.252 E.00887
G1 X197.218 Y119.585 E.02376
G1 X196.88 Y119.984 E.01987
G1 X196.648 Y120.537 E.02279
G1 X196.584 Y120.996 E.01761
G1 X196.584 Y126.889 E.22397
G1 X195.783 Y130.094 E.12556
G1 X195.398 Y130.094 E.01463
G1 X195.398 Y120.996 E.34578
G1 X195.312 Y120.444 E.02123
G1 X195.031 Y119.888 E.02368
G1 X194.88 Y119.704 E.00905
G1 X194.484 Y119.374 E.01959
G1 X193.955 Y119.158 E.02172
G1 X193.508 Y119.095 E.01716
G1 X191.77 Y119.094 E.06605
M204 P1000
G1 X191.769 Y119.551 F12000
M204 P600
;TYPE:External perimeter
G1 F1200
G1 X191.611 Y119.615 E.00648
G1 X191.541 Y119.78 E.00681
G1 X191.541 Y130.551 E.40937
G1 X67.441 Y130.551 E4.71658
G1 X67.441 Y119.78 E.40937
G1 X67.377 Y119.621 E.00651
G1 X67.212 Y119.551 E.00681
G1 X65.486 Y119.551 E.0656
G1 X65.019 Y119.63 E.018
G1 X64.582 Y119.872 E.01899
G1 X64.252 Y120.254 E.01919
G1 X64.075 Y120.699 E.0182
G1 X64.041 Y120.996 E.01136
G1 X64.041 Y130.551 E.36315
G1 X62.842 Y130.551 E.04557
G1 X61.941 Y126.946 E.14123
G1 X61.941 Y120.996 E.22614
G1 X61.866 Y120.547 E.0173
G1 X61.617 Y120.093 E.01968
G1 X61.236 Y119.761 E.01921
G1 X60.793 Y119.586 E.0181
G1 X60.496 Y119.551 E.01137
G1 X58.474 Y119.552 E.07685
G1 X58.02 Y119.633 E.01753
G1 X57.581 Y119.876 E.01907
G1 X57.264 Y120.233 E.01815
G1 X57.076 Y120.697 E.01903
G1 X57.041 Y120.996 E.01144
G1 X57.041 Y126.946 E.22614
G1 X56.14 Y130.551 E.14123
G1 X54.941 Y130.551 E.04557
G1 X54.941 Y85.451 E1.71408
G1 X58.542 Y85.451 E.13686
G1 X58.661 Y85.418 E.00469
G1 X58.77 Y85.242 E.00787
G1 X58.756 Y84.741 E.01905
G1 X58.763 Y78.677 E.23047
G1 X58.814 Y78.044 E.02414
G1 X58.863 Y77.95 E.00403
G1 X60.118 Y77.95 E.0477
G1 X60.15 Y77.998 E.00219
G1 X60.218 Y78.43 E.01662
G1 X60.218 Y85.242 E.2589
G1 X60.327 Y85.418 E.00787
G1 X60.446 Y85.451 E.00469
G1 X198.536 Y85.451 E5.24829
G1 X198.581 Y85.447 E.00172
G1 X198.713 Y85.367 E.00587
G1 X198.764 Y85.223 E.00581
G1 X198.764 Y78.677 E.24879
G1 X198.814 Y78.044 E.02413
G1 X198.863 Y77.95 E.00403
G1 X200.118 Y77.95 E.0477
G1 X200.15 Y77.998 E.00219
G1 X200.218 Y78.431 E.01666
G1 X200.226 Y84.741 E.23982
G1 X200.212 Y85.242 E.01905
G1 X200.321 Y85.418 E.00787
G1 X200.44 Y85.451 E.00469
G1 X204.041 Y85.451 E.13686
G1 X204.041 Y130.551 E1.71408
G1 X202.842 Y130.551 E.04557
G1 X201.941 Y126.946 E.14123
G1 X201.941 Y120.996 E.22614
G1 X201.859 Y120.531 E.01795
G1 X201.616 Y120.091 E.0191
G1 X201.236 Y119.761 E.01913
G1 X200.767 Y119.581 E.01909
G1 X200.496 Y119.551 E.01036
G1 X198.486 Y119.551 E.07639
G1 X198.045 Y119.624 E.01699
G1 X197.602 Y119.859 E.01906
G1 X197.265 Y120.232 E.01911
G1 X197.076 Y120.697 E.01908
G1 X197.041 Y120.996 E.01144
G1 X197.041 Y126.946 E.22614
G1 X196.14 Y130.551 E.14123
G1 X194.941 Y130.551 E.04557
G1 X194.941 Y120.996 E.36315
G1 X194.868 Y120.555 E.01699
G1 X194.633 Y120.113 E.01903
G1 X194.26 Y119.776 E.01911
G1 X193.795 Y119.586 E.01909
G1 X193.508 Y119.552 E.01098
G1 X191.829 Y119.551 E.06381
M204 P1000
G1 X191.65 Y119.429 F12000
;WIPE_START
G1 F9600
G1 X191.611 Y119.615 E-.04722
G1 X191.541 Y119.78 E-.03725
G1 X191.541 Y124.186 E-.91553
;WIPE_END
G1 Z.35 F720
G1 X203.378 Y87.04 F12000
G1 Z.2 F720
G1 E1 F1500
M204 P600
;TYPE:Solid infill
;WIDTH:0.501224
G1 F1200
G1 X202.657 Y86.32 E.03883
G1 X202.009 Y86.32 E.02469
G1 X203.172 Y87.483 E.06268
G1 X203.172 Y88.131 E.02469
G1 X201.361 Y86.32 E.0976
G1 X200.713 Y86.32 E.02469
G1 X203.172 Y88.779 E.13252
G1 X203.172 Y89.427 E.02469
G1 X199.48 Y85.735 E.19897
G1 X199.39 Y85.916 E.0077
G1 X199.189 Y86.092 E.01018
G1 X203.172 Y90.075 E.21466
G1 X203.172 Y90.724 E.02473
G1 X198.748 Y86.299 E.23845
G1 X198.545 Y86.32 E.00778
G1 X198.12 Y86.32 E.0162
G1 X203.172 Y91.372 E.27227
G1 X203.172 Y92.02 E.02469
G1 X197.472 Y86.32 E.30719
G1 X196.824 Y86.32 E.02469
G1 X203.172 Y92.668 E.34211
G1 X203.172 Y93.316 E.02469
G1 X196.176 Y86.32 E.37704
G1 X195.528 Y86.32 E.02469
G1 X203.172 Y93.964 E.41196
G1 X203.172 Y94.612 E.02469
G1 X194.88 Y86.32 E.44688
G1 X194.231 Y86.32 E.02473
G1 X203.172 Y95.261 E.48186
G1 X203.172 Y95.909 E.02469
G1 X193.583 Y86.32 E.51678
G1 X192.935 Y86.32 E.02469
G1 X203.172 Y96.557 E.5517
G1 X203.172 Y97.205 E.02469
G1 X192.287 Y86.32 E.58663
G1 X191.639 Y86.32 E.02469
G1 X203.172 Y97.853 E.62155
G1 X203.172 Y98.501 E.02469
M73 P0 R117
G1 X190.991 Y86.32 E.65647
G1 X190.343 Y86.32 E.02469
G1 X203.172 Y99.149 E.69139
G1 X203.172 Y99.798 E.02473
G1 X189.694 Y86.32 E.72637
G1 X189.046 Y86.32 E.02469
G1 X203.172 Y100.446 E.76129
G1 X203.172 Y101.094 E.02469
G1 X188.398 Y86.32 E.79622
G1 X187.75 Y86.32 E.02469
G1 X203.172 Y101.742 E.83114
G1 X203.172 Y102.39 E.02469
G1 X187.102 Y86.32 E.86606
G1 X186.454 Y86.32 E.02469
M73 P1 R117
G1 X203.172 Y103.038 E.90098
G1 X203.172 Y103.686 E.02469
G1 X185.806 Y86.32 E.93591
G1 X185.157 Y86.32 E.02473
G1 X203.172 Y104.335 E.97088
G1 X203.172 Y104.983 E.02469
G1 X184.509 Y86.32 E1.00581
G1 X183.861 Y86.32 E.02469
G1 X203.172 Y105.631 E1.04073
G1 X203.172 Y106.279 E.02469
G1 X183.213 Y86.32 E1.07565
G1 X182.565 Y86.32 E.02469
G1 X203.172 Y106.927 E1.11057
G1 X203.172 Y107.575 E.02469
G1 X181.917 Y86.32 E1.1455
G1 X181.269 Y86.32 E.02469
G1 X203.172 Y108.223 E1.18042
G1 X203.172 Y108.871 E.02469
G1 X180.62 Y86.32 E1.21537
G1 X179.972 Y86.32 E.02469
G1 X203.172 Y109.52 E1.25032
G1 X203.172 Y110.168 E.02469
G1 X179.324 Y86.32 E1.28524
G1 X178.676 Y86.32 E.02469
G1 X203.172 Y110.816 E1.32016
G1 X203.172 Y111.464 E.02469
G1 X178.028 Y86.32 E1.35509
G1 X177.38 Y86.32 E.02469
G1 X203.172 Y112.112 E1.39001
G1 X203.172 Y112.76 E.02469
G1 X176.732 Y86.32 E1.42493
G1 X176.083 Y86.32 E.02473
G1 X203.172 Y113.408 E1.45988
G1 X203.172 Y114.057 E.02473
G1 X175.435 Y86.32 E1.49483
G1 X174.787 Y86.32 E.02469
G1 X203.172 Y114.705 E1.52975
G1 X203.172 Y115.353 E.02469
G1 X174.139 Y86.32 E1.56468
G1 X173.491 Y86.32 E.02469
G1 X203.172 Y116.001 E1.5996
G1 X203.172 Y116.649 E.02469
G1 X172.843 Y86.32 E1.63452
G1 X172.195 Y86.32 E.02469
G1 X203.172 Y117.297 E1.66944
G1 X203.172 Y117.945 E.02469
G1 X171.546 Y86.32 E1.70439
G1 X170.898 Y86.32 E.02469
G1 X203.172 Y118.594 E1.73934
G1 X203.172 Y119.242 E.02469
G1 X170.25 Y86.32 E1.77427
G1 X169.602 Y86.32 E.02469
G1 X203.172 Y119.89 E1.80919
G1 X203.172 Y120.538 E.02469
G1 X168.954 Y86.32 E1.84411
G1 X168.306 Y86.32 E.02469
G1 X200.682 Y118.696 E1.74484
G1 X200.503 Y118.683 E.00684
G1 X200.021 Y118.683 E.01837
G1 X167.658 Y86.32 E1.74414
G1 X167.01 Y86.32 E.02469
G1 X199.373 Y118.683 E1.74414
M73 P1 R116
G1 X198.724 Y118.683 E.02473
G1 X166.361 Y86.32 E1.74414
G1 X165.713 Y86.32 E.02469
G1 X198.124 Y118.73 E1.7467
G1 X197.802 Y118.788 E.01247
G1 X197.611 Y118.866 E.00786
G1 X165.065 Y86.32 E1.754
G1 X164.417 Y86.32 E.02469
G1 X197.196 Y119.098 E1.76653
G1 X197.053 Y119.181 E.0063
G1 X196.841 Y119.392 E.0114
G1 X163.769 Y86.32 E1.78235
G1 X163.121 Y86.32 E.02469
G1 X196.545 Y119.744 E1.80132
G1 X196.417 Y119.982 E.0103
G1 X196.34 Y120.187 E.00835
G1 X162.473 Y86.32 E1.8252
G1 X161.824 Y86.32 E.02473
M73 P2 R116
G1 X196.385 Y120.88 E1.86257
M204 P1000
G1 X195.567 Y120.71 F12000
M204 P600
G1 F1200
G1 X196.176 Y121.319 E.03282
G1 X196.176 Y121.967 E.02469
G1 X195.809 Y121.601 E.01975
G1 X195.809 Y122.249 E.02469
G1 X196.175 Y122.615 E.01972
G1 X196.175 Y123.263 E.02469
G1 X195.809 Y122.897 E.01972
G1 X195.809 Y123.545 E.02469
G1 X196.174 Y123.91 E.01967
G1 X196.174 Y124.558 E.02469
G1 X195.809 Y124.193 E.01967
G1 X195.809 Y124.841 E.02469
G1 X196.174 Y125.206 E.01967
G1 X196.173 Y125.853 E.02466
G1 X195.809 Y125.49 E.01959
G1 X195.809 Y126.138 E.02469
G1 X196.173 Y126.501 E.01959
G1 X196.172 Y126.839 E.01288
G1 X196.11 Y127.087 E.00974
G1 X195.809 Y126.786 E.01622
G1 X195.809 Y127.434 E.02469
G1 X195.981 Y127.605 E.00924
G1 X195.851 Y128.124 E.02039
G1 X195.604 Y127.876 E.01334
M204 P1000
;WIPE_START
G1 F9600
G1 X195.851 Y128.124 E-.07274
G1 X195.981 Y127.605 E-.11119
G1 X195.809 Y127.434 E-.0504
G1 X195.809 Y126.786 E-.13466
G1 X196.11 Y127.087 E-.08846
G1 X196.172 Y126.839 E-.05312
G1 X196.173 Y126.501 E-.07024
G1 X195.809 Y126.138 E-.10683
G1 X195.809 Y125.49 E-.13466
G1 X196.173 Y125.853 E-.10683
G1 X196.174 Y125.512 E-.07087
;WIPE_END
G1 Z.35 F720
G1 X203.378 Y121.392 F12000
G1 Z.2 F720
G1 E1 F1500
M204 P600
G1 F1200
G1 X202.793 Y120.807 E.03153
G1 X202.809 Y120.987 E.00689
G1 X202.809 Y121.471 E.01844
G1 X203.172 Y121.834 E.01956
G1 X203.172 Y122.482 E.02469
G1 X202.809 Y122.119 E.01956
G1 X202.809 Y122.767 E.02469
G1 X203.172 Y123.131 E.01959
G1 X203.172 Y123.779 E.02469
G1 X202.809 Y123.416 E.01956
G1 X202.809 Y124.064 E.02469
G1 X203.172 Y124.427 E.01956
G1 X203.172 Y125.075 E.02469
G1 X202.809 Y124.712 E.01956
G1 X202.809 Y125.36 E.02469
G1 X203.172 Y125.723 E.01956
G1 X203.172 Y126.371 E.02469
G1 X202.809 Y126.008 E.01956
G1 X202.809 Y126.656 E.02469
G1 X203.172 Y127.019 E.01956
G1 X203.172 Y127.668 E.02473
G1 X202.682 Y127.177 E.02643
M204 P1000
;WIPE_START
G1 F9600
G1 X203.172 Y127.668 E-.14415
G1 X203.172 Y127.019 E-.13487
G1 X202.809 Y126.656 E-.10668
G1 X202.809 Y126.008 E-.13466
G1 X203.172 Y126.371 E-.10668
G1 X203.172 Y125.723 E-.13466
G1 X202.809 Y125.36 E-.10668
G1 X202.809 Y124.727 E-.13162
;WIPE_END
G1 Z.35 F720
G1 X193.767 Y118.91 F12000
G1 Z.2 F720
G1 E1 F1500
M204 P600
G1 F1200
G1 X161.176 Y86.32 E1.7564
G1 X160.528 Y86.32 E.02469
G1 X192.894 Y118.686 E1.7443
G1 X192.244 Y118.684 E.02477
G1 X159.88 Y86.32 E1.74419
G1 X159.232 Y86.32 E.02469
G1 X191.609 Y118.697 E1.74489
G1 X191.357 Y118.762 E.00992
G1 X191.145 Y118.881 E.00926
G1 X158.584 Y86.32 E1.75481
G1 X157.936 Y86.32 E.02469
G1 X190.832 Y119.216 E1.77287
G1 X190.772 Y119.32 E.00458
G1 X190.705 Y119.513 E.00779
G1 X190.675 Y119.707 E.00748
G1 X157.287 Y86.32 E1.79935
G1 X156.639 Y86.32 E.02469
G1 X190.674 Y120.355 E1.83425
G1 X190.674 Y121.003 E.02469
G1 X155.991 Y86.32 E1.86917
G1 X155.343 Y86.32 E.02469
G1 X190.674 Y121.651 E1.90409
G1 X190.674 Y122.299 E.02469
G1 X154.695 Y86.32 E1.93902
G1 X154.047 Y86.32 E.02469
G1 X190.674 Y122.947 E1.97394
G1 X190.674 Y123.595 E.02469
G1 X153.399 Y86.32 E2.00886
G1 X152.75 Y86.32 E.02473
G1 X190.674 Y124.243 E2.04381
G1 X190.673 Y124.891 E.02469
G1 X152.102 Y86.32 E2.07871
G1 X151.454 Y86.32 E.02469
G1 X190.673 Y125.539 E2.11363
G1 X190.673 Y126.187 E.02469
M73 P2 R115
G1 X150.806 Y86.32 E2.14855
G1 X150.158 Y86.32 E.02469
G1 X190.673 Y126.835 E2.18348
G1 X190.673 Y127.483 E.02469
G1 X149.51 Y86.32 E2.2184
G1 X148.862 Y86.32 E.02469
G1 X190.673 Y128.131 E2.25332
G1 X190.673 Y128.779 E.02469
G1 X148.213 Y86.32 E2.28827
G1 X147.565 Y86.32 E.02469
G1 X190.672 Y129.427 E2.32317
G1 X190.672 Y129.683 E.00976
G1 X190.28 Y129.683 E.01494
G1 X146.917 Y86.32 E2.33696
G1 X146.269 Y86.32 E.02469
G1 X189.632 Y129.683 E2.33696
G1 X188.984 Y129.683 E.02469
G1 X145.621 Y86.32 E2.33696
G1 X144.973 Y86.32 E.02469
G1 X188.336 Y129.683 E2.33696
M73 P3 R115
G1 X187.688 Y129.683 E.02469
G1 X144.325 Y86.32 E2.33696
G1 X143.676 Y86.32 E.02473
G1 X187.04 Y129.683 E2.33699
G1 X186.391 Y129.683 E.02473
G1 X143.028 Y86.32 E2.33696
G1 X142.38 Y86.32 E.02469
G1 X185.743 Y129.683 E2.33696
G1 X185.095 Y129.683 E.02469
G1 X141.732 Y86.32 E2.33696
